X: 5
T:Major Mackie
R: 32-bar single jig
M:6/8
K:D
A|"D"ABc dcd|"G"B2e e2d|"A7"c2a a^ga|"D"f2d dcB|
"D"ABc dcd|"G"B2e e2d|"A7"c2a gfe|"D"d3 d2:|
e|:"D"f2f def|"Em"g2g g2f|"A7"e2e cde|"D"f3 "A7"a2f|
"Bm"ddd def|"Em"g2B e2d|"A7"c2a gfe|"D"d3 d2:|
